X:15
T:Da Day Dawn
M:6/4
L:1/8
S:Shetland
R:air
K:Am
AB|"Am"cd/ z/ BA "Am"cd/ z/ BA "G"B2 AG |"Am"cd/ z/ BA "Am"cd/ z/ BA "Em
"e2 AB|
"Am"cd/ z/ BA "Am"cd/ z/
 BA "G"B2 AG| "Am"A2 GE"G" DE GA "G"BA Bc|"G"dcBA "Am"e2||
AB|"Am" A2 a2 "Am"e2 dc "G"B2 AG|!"Am" A2 a2 "Am"e2 dc "Em"e2 AB |
"Am"A2 a2 "Am"e2 dc "G"BABG| "Am"A2 GE "G"DE GA
 "G"BA Bc|"G"dcBA "Em"e2||
